X:31
T:The Athole Highlanders
M:6/8
L:1/8
K:A
"A" e2 e ecA|ecA Bcd|e2 e ecA|"E" Bcd cBA|"A" e2 e ecA|
ecA Bcd|eae "D" fed|"E" cdB "A" A3:||:"A" Ace Ace|"D" Adf Adf|
"A" Ace Ace|"E" Bcd cBA|"A" Ace Ace|"D" Adf Adf|\
"A" eae "D" fed|"E" cdB "A" A3:|
|:"A" a2 e edc|a2 e edc|a2 e edc|"E" Bcd cBA|"A" a2 e edc|
a2 e edc|e2 e "D" fed|"E" cdB "A" A3:||:"A" cAc cAc|"G" dBd dBd|
"A" cAc cAc|"E" BGB BGB|"A" cAc cAc|"G" dBd dBd|"A" eae "D" fed|\
"E" cdB "A" A3:|
